X:0475
T:Paddeen O Rafardie
C:Irish.
M:6/8
L:1/8
Q:3/8=120
I: :: ::
Z:Jack Campin * www.campin.me.uk * 2009
K:G
(G/A/B).D D>ED|DcB AGA|(G/A/B).D D>ED|GAG GED |
(G/A/B).D DED |DcB cde| dBG      ABc |BcA GED::
 GBd      GBd |GBd ecA| GBd      efg |GAG GED |
 GBd      GBd |GBd def| gfg      dBA |GAG GED:|

